media/mc-logo-yellow.svg

<svg width="290" height="110" viewBox="0 0 290 110" fill="none" xmlns="http://www.w3.org/2000/svg">
<g clip-path="url(#clip0_1_2)">
<path d="M58.1474 0V5.94737C113.667 5.94737 231.083 5.74422 254.632 5.94737C278.18 6.15052 282.105 21.6654 282.105 29.7368V79.8647H289.955V29.7368C290.609 19.8246 284.46 0 254.632 0H58.1474Z" fill="#FFD877"/>
<path d="M34.3535 109.602C6.09511 109.602 -0.315365 89.7769 0.0117 79.8647V31H6.88006V79.8647C7.20713 87.7945 13.1597 103.654 34.3535 103.654H235.5V109.602H34.3535Z" fill="#FFD877"/>
<path d="M51.272 86.24H57.32L71.144 30.752H65.096L66.536 24.992H89.576L94.376 56.288H95.24L115.496 24.992H139.496L138.056 30.752H132.008L118.184 86.24H124.232L122.792 92H96.008L97.448 86.24H103.496L116.072 36.032H115.112L106.664 48.896L85.544 80.864L79.592 48.704L77.768 36.224H76.808L64.328 86.24H70.376L68.936 92H49.832L51.272 86.24Z" fill="#FFD877"/>
<path d="M139.997 93.152C137.565 93.152 135.645 92.48 134.237 91.136C132.893 89.728 132.221 88.096 132.221 86.24C132.221 85.344 132.317 84.512 132.509 83.744C133.021 81.568 134.109 79.84 135.773 78.56C137.437 77.216 139.485 76.544 141.917 76.544C144.349 76.544 146.237 77.248 147.581 78.656C148.989 80 149.693 81.6 149.693 83.456C149.693 84.352 149.597 85.184 149.405 85.952C148.893 88.128 147.805 89.888 146.141 91.232C144.477 92.512 142.429 93.152 139.997 93.152Z" fill="#FFD877"/>
<path d="M180.36 93.152C177.48 93.152 174.728 92.736 172.104 91.904C169.48 91.072 167.176 89.728 165.192 87.872C163.272 85.952 161.736 83.488 160.584 80.48C159.432 77.472 158.856 73.792 158.856 69.44C158.856 66.048 159.208 62.592 159.912 59.072C160.616 55.488 161.672 52 163.08 48.608C164.488 45.216 166.216 42.016 168.264 39.008C170.312 36 172.648 33.376 175.272 31.136C177.96 28.896 180.904 27.136 184.104 25.856C187.368 24.512 190.888 23.84 194.664 23.84C198.056 23.84 200.68 24.512 202.536 25.856C204.456 27.2 205.704 28.832 206.28 30.752H207.336L208.776 24.992H219.336L214.056 46.304H203.496L204.456 42.368C204.776 41.088 204.936 39.936 204.936 38.912C204.936 36.096 204.04 34.016 202.248 32.672C200.52 31.328 198.376 30.656 195.816 30.656C191.656 30.656 188.2 32.256 185.448 35.456C182.696 38.656 180.68 42.752 179.4 47.744C178.312 52.16 177.416 55.776 176.712 58.592C176.008 61.344 175.432 63.648 174.984 65.504C174.6 67.36 174.312 68.896 174.12 70.112C173.992 71.264 173.928 72.448 173.928 73.664C173.928 77.12 174.792 79.968 176.52 82.208C178.248 84.448 180.936 85.568 184.584 85.568C186.696 85.568 188.616 85.248 190.344 84.608C192.136 83.968 193.768 83.104 195.24 82.016C196.776 80.864 198.152 79.52 199.368 77.984C200.648 76.448 201.864 74.752 203.016 72.896L207.144 75.584C205.736 77.888 204.104 80.096 202.248 82.208C200.392 84.32 198.344 86.208 196.104 87.872C193.864 89.472 191.4 90.752 188.712 91.712C186.088 92.672 183.304 93.152 180.36 93.152Z" fill="#FFD877"/>
<path d="M217.247 93.152C214.815 93.152 212.895 92.48 211.487 91.136C210.143 89.728 209.471 88.096 209.471 86.24C209.471 85.344 209.567 84.512 209.759 83.744C210.271 81.568 211.359 79.84 213.023 78.56C214.687 77.216 216.735 76.544 219.167 76.544C221.599 76.544 223.487 77.248 224.831 78.656C226.239 80 226.943 81.6 226.943 83.456C226.943 84.352 226.847 85.184 226.655 85.952C226.143 88.128 225.055 89.888 223.391 91.232C221.727 92.512 219.679 93.152 217.247 93.152Z" fill="#FFD877"/>
</g>
<defs>
<clipPath id="clip0_1_2">
<rect width="290" height="110" fill="white"/>
</clipPath>
</defs>
</svg>

<svg version="1.2" xmlns="http://www.w3.org/2000/svg" viewBox="0 0 290 110" width="290" height="110">
	<title>mc-logo-yellow-svg</title>
	<defs>
		<clipPath clipPathUnits="userSpaceOnUse" id="cp1">
			<path d="m0 0h290v110h-290z"/>
		</clipPath>
	</defs>
	<style>
		.s0 { fill: #ffd877 } 
	</style>
	<filter id="f0">
		<feFlood flood-color="#fbd214" flood-opacity="1" />
		<feBlend mode="normal" in2="SourceGraphic"/>
		<feComposite in2="SourceAlpha" operator="in" />
	</filter>
	<g id="Clip-Path" clip-path="url(#cp1)" filter="url(#f0)">
		<g id="Layer">
			<path id="Layer" class="s0" d="m254.6 0c29.9 0 36 19.8 35.4 29.7v50.2h-7.9v-50.2c0-8-3.9-23.5-27.5-23.8-23.5-0.2-140.9 0-196.5 0v-5.9z"/>
			<path id="Layer" class="s0" d="m34.4 109.6c-28.3 0-34.7-19.8-34.4-29.7v-48.9h6.9v48.9c0.3 7.9 6.3 23.8 27.5 23.8h201.1v5.9z"/>
			<path id="Layer" class="s0" d="m51.3 86.2h6l13.8-55.4h-6l1.4-5.8h23.1l4.8 31.3h0.8l20.3-31.3h24l-1.4 5.8h-6.1l-13.8 55.4h6l-1.4 5.8h-26.8l1.4-5.8h6.1l12.6-50.2h-1l-8.4 12.9-21.2 32-5.9-32.2-1.8-12.5h-1l-12.5 50h6.1l-1.5 5.8h-19.1z"/>
			<path id="Layer" class="s0" d="m140 93.2q-3.7 0-5.8-2.1-2-2.1-2-4.9 0-1.3 0.3-2.5 0.8-3.2 3.3-5.1 2.5-2.1 6.1-2.1 3.7 0 5.7 2.2 2.1 2 2.1 4.8 0 1.3-0.3 2.5-0.8 3.2-3.3 5.2-2.5 2-6.1 2z"/>
			<path id="Layer" class="s0" d="m180.4 93.2q-4.4 0-8.3-1.3-3.9-1.2-6.9-4-2.9-2.9-4.6-7.4-1.7-4.5-1.7-11.1 0-5 1-10.3 1.1-5.4 3.2-10.5 2.1-5.1 5.2-9.6 3-4.5 7-7.9 4-3.3 8.8-5.2 4.9-2.1 10.6-2.1 5.1 0 7.8 2.1 2.9 2 3.8 4.9h1l1.5-5.8h10.5l-5.2 21.3h-10.6l1-3.9q0.4-2 0.4-3.5 0-4.2-2.7-6.2-2.5-2-6.4-2-6.2 0-10.4 4.8-4.1 4.8-6 12.2-1.6 6.7-2.7 10.9-1 4.1-1.7 6.9-0.6 2.8-0.9 4.6-0.2 1.7-0.2 3.6 0 5.1 2.6 8.5 2.6 3.4 8.1 3.4 3.2 0 5.7-1 2.7-1 4.9-2.6 2.3-1.7 4.2-4 1.9-2.3 3.6-5.1l4.1 2.7q-2.1 3.4-4.9 6.6-2.7 3.2-6.1 5.7-3.4 2.4-7.4 3.8-3.9 1.5-8.3 1.5z"/>
			<path id="Layer" class="s0" d="m217.2 93.2q-3.6 0-5.7-2.1-2-2.1-2-4.9 0-1.3 0.3-2.5 0.7-3.2 3.2-5.1 2.5-2.1 6.2-2.1 3.6 0 5.6 2.2 2.1 2 2.1 4.8 0 1.3-0.2 2.5-0.8 3.2-3.3 5.2-2.5 2-6.2 2z"/>
		</g>
	</g>
</svg>
